raw/symbols/render.svg

<svg width="42" height="42" viewBox="0 0 42 42" fill="none" xmlns="http://www.w3.org/2000/svg">
<g clip-path="url(#clip0_8734_192288)">
<rect width="42" height="42" rx="21" fill="#CF1011"/>
<path fill-rule="evenodd" clip-rule="evenodd" d="M20.995 15.4785C24.0358 15.4785 26.5169 17.941 26.5169 21.0004C26.5169 24.0412 24.0545 26.5223 20.995 26.5223C17.9543 26.5223 15.4731 24.0598 15.4731 21.0004C15.4731 17.9596 17.9356 15.4785 20.995 15.4785Z" fill="#F3F3F3"/>
<path fill-rule="evenodd" clip-rule="evenodd" d="M21.1213 6.56553C22.8562 6.58419 24.5724 6.91998 26.1768 7.53559C27.7811 8.15121 29.2735 9.04665 30.5794 10.2033L30.6167 10.2406C33.5828 12.8896 35.2058 16.4713 35.411 20.1464C35.6349 23.8401 34.4409 27.6084 31.8106 30.5932L31.7733 30.6305C29.1243 33.5966 25.5425 35.2196 21.8675 35.4248C18.1738 35.6487 14.4055 34.4548 11.4207 31.8244C8.43585 29.1754 6.79421 25.575 6.589 21.8813C6.36514 18.1876 7.55906 14.4193 10.1894 11.4345L11.4393 12.5351C9.10743 15.1655 8.06275 18.5047 8.2493 21.7694C8.4545 25.034 9.89094 28.224 12.5213 30.5559C15.1517 32.8878 18.4909 33.9324 21.7555 33.7459C25.0202 33.5407 28.2102 32.1042 30.542 29.4739L30.5794 29.4366C32.8926 26.8062 33.9373 23.4856 33.732 20.2397C33.5268 16.975 32.0904 13.785 29.4601 11.4531L29.4227 11.4158C28.2848 10.4085 26.9789 9.62495 25.5798 9.08396C24.162 8.54296 22.651 8.24448 21.1213 8.22583L21.1399 6.54688L21.1213 6.56553Z" fill="#F3F3F3"/>
<path d="M12.7861 6.66016C13.7934 6.66016 14.6889 7.07057 15.3418 7.72349C15.9947 8.37642 16.4051 9.29051 16.4051 10.2792C16.4051 11.2866 15.9947 12.182 15.3418 12.835C14.6889 13.4879 13.7748 13.8983 12.7861 13.8983C11.7787 13.8983 10.8833 13.4879 10.2303 12.835C9.5774 12.182 9.16699 11.2679 9.16699 10.2792C9.16699 9.27186 9.5774 8.37642 10.2303 7.72349C10.8833 7.07057 11.7973 6.66016 12.7861 6.66016ZM14.1665 8.91741C13.8121 8.56297 13.3271 8.33911 12.7861 8.33911C12.2451 8.33911 11.76 8.56297 11.4056 8.91741C11.0511 9.27186 10.8273 9.75689 10.8273 10.2979C10.8273 10.8389 11.0511 11.3239 11.4056 11.6784C11.76 12.0328 12.2451 12.2567 12.7861 12.2567C13.3271 12.2567 13.8121 12.0328 14.1665 11.6784C14.521 11.3239 14.7448 10.8389 14.7448 10.2979C14.7448 9.75689 14.521 9.27186 14.1665 8.91741Z" fill="#F3F3F3"/>
</g>
<defs>
<clipPath id="clip0_8734_192288">
<rect width="42" height="42" fill="white"/>
</clipPath>
</defs>
</svg>

<svg xmlns="http://www.w3.org/2000/svg" width="42" height="42" fill="none"><rect width="42" height="42" fill="#CF1011" rx="21"/><path fill="#F3F3F3" fill-rule="evenodd" d="M20.995 15.479a5.521 5.521 0 1 1 0 11.044 5.521 5.521 0 1 1 0-11.044Z" clip-rule="evenodd"/><path fill="#F3F3F3" fill-rule="evenodd" d="M21.121 6.566a14.575 14.575 0 0 1 9.458 3.637l.038.038a14.313 14.313 0 0 1 4.794 9.905 14.439 14.439 0 0 1-3.6 10.447l-.038.038a14.313 14.313 0 0 1-9.905 4.794 14.438 14.438 0 0 1-10.447-3.6 14.328 14.328 0 0 1-4.832-9.944 14.439 14.439 0 0 1 3.6-10.447l1.25 1.101a12.778 12.778 0 0 0-3.19 9.234c.205 3.265 1.642 6.455 4.272 8.787a12.778 12.778 0 0 0 9.235 3.19c3.264-.205 6.454-1.642 8.786-4.272l.037-.037a12.683 12.683 0 0 0 3.153-9.197c-.205-3.265-1.642-6.455-4.272-8.787l-.037-.037a12.709 12.709 0 0 0-3.843-2.332 12.966 12.966 0 0 0-4.459-.858l.019-1.68-.019.02Z" clip-rule="evenodd"/><path fill="#F3F3F3" d="M12.786 6.66c1.007 0 1.903.41 2.556 1.063a3.627 3.627 0 0 1 1.063 2.556c0 1.008-.41 1.903-1.063 2.556a3.627 3.627 0 0 1-2.556 1.063 3.594 3.594 0 0 1-2.556-1.063 3.627 3.627 0 0 1-1.063-2.556c0-1.007.41-1.903 1.063-2.556a3.627 3.627 0 0 1 2.556-1.063Zm1.38 2.257a1.946 1.946 0 0 0-1.38-.578c-.54 0-1.026.224-1.38.578-.355.355-.579.84-.579 1.38 0 .542.224 1.027.579 1.381.354.355.84.579 1.38.579.541 0 1.026-.224 1.38-.579.355-.354.579-.84.579-1.38 0-.541-.224-1.026-.579-1.38Z"/></svg>
